svgs/sharp-solid/transporter-2.svg

<svg xmlns="http://www.w3.org/2000/svg" viewBox="0 0 512 512"><!--! Font Awesome Pro 6.4.2 by @fontawesome - https://fontawesome.com License - https://fontawesome.com/license (Commercial License) Copyright 2023 Fonticons, Inc. --><path d="M64 32L48 0 32 32 0 48 32 64 48 96 64 64 96 48 64 32zM256 96a48 48 0 1 0 0-96 48 48 0 1 0 0 96zm-51.1 32H189.6l-9.6 12-67.3 84H399.4L332 140l-9.6-12H307.1 204.9zM416 512V448H96v64H216h80H416zM96 255.5c0 .3 0 .7 0 1V288h16H400h16V256H400 112 96v-.5zM464 320l-16 32-32 16 32 16 16 32 16-32 32-16-32-16-16-32zm-288 0H160v32h16H336h16V320H336 176zm0 64H160v32h16H336h16V384H336 176z"/></svg>

<svg xmlns="http://www.w3.org/2000/svg" viewBox="0 0 512 512"><!--! Font Awesome Pro 6.6.0 by @fontawesome - https://fontawesome.com License - https://fontawesome.com/license (Commercial License) Copyright 2024 Fonticons, Inc. --><path d="M64 32L48 0 32 32 0 48 32 64 48 96 64 64 96 48 64 32zM256 96a48 48 0 1 0 0-96 48 48 0 1 0 0 96zm-51.1 32l-15.4 0-9.6 12-67.3 84 286.7 0L332 140l-9.6-12-15.4 0-102.2 0zM416 512l0-64L96 448l0 64 120 0 80 0 120 0zM96 255.5c0 .3 0 .7 0 1L96 288l16 0 288 0 16 0 0-32-16 0-288 0-16 0 0-.5zM464 320l-16 32-32 16 32 16 16 32 16-32 32-16-32-16-16-32zm-288 0l-16 0 0 32 16 0 160 0 16 0 0-32-16 0-160 0zm0 64l-16 0 0 32 16 0 160 0 16 0 0-32-16 0-160 0z"/></svg>
